!!!COM: Music21
!!!OTL: Mazurca dos Fros
!!!OMV: pezas_mazurcas_mazurca-dos-fros_mazurca-dos-fros-partitura.musicxml
**kern
*I"Bagpipes
*I'Bag
*clefG^2
*k[]
*M3/4
=1
!LO:TX:a:t=Allegretto
*MM120
!LO:TX:a:t=[quarter]=120
8ccL
8ddJ
8eeL
8ffJ
8ggL
8aaJ
=
4gg
4gg
8eeL
8ffJ
=
4gg
4ccc
8.bbL
16aaJk
=
4gg
2gg
=
8ccL
8ddJ
8eeL
8ffJ
8ggL
8aaJ
=
4gg
4gg
8eeL
8ffJ
=
4gg
4ccc
8.bbL
16aaJk
=
4bb
2gg
!!linebreak:original
=
8aaL
8ggJ
8ffL
8ggJ
8aaL
8bbJ
=
4gg
2gg
=
8aaL
8ggJ
8ffL
8ggJ
8aaL
8bbJ
=
4gg
2gg
=||
8ffL
8eeJ
8ddL
8ffJ
8eeL
8ddJ
=
8eeL
8ddJ
8ccL
8eeJ
8ddL
8ccJ
=
8ddL
8ccJ
8bL
8ddJ
8ccL
8bJ
=
4gg
2gg
!!linebreak:original
=
8ffL
8eeJ
8ddL
8ffJ
8eeL
8ddJ
=
4gg
4cc
8.ccL
16eeJk
=
4dd
4ff
8.eeL
16ddJk
=
4cc
2cc
=||
8ffL
8eeJ
8ddL
8ffJ
8eeL
8ddJ
=
8eeL
8ddJ
8ccL
8eeJ
8ddL
8ccJ
=
8ddL
8ccJ
8bL
8ddJ
8ccL
8bJ
=
4gg
2gg
!!linebreak:original
=
8ffL
8eeJ
8ddL
8ffJ
8eeL
8ddJ
=
4gg
4cc
8.ccL
16eeJk
=
4dd
4ff
8.eeL
16ddJk
=
4cc
2cc
=||
*-
